; generated by PrusaSlicer 2.6.1+MacOS-arm64 on 2023-09-28 at 16:15:20 UTC


;
;
; 

; external perimeters extrusion width = 0.65mm
; perimeters extrusion width = 0.65mm
; infill extrusion width = 0.65mm
; solid infill extrusion width = 0.65mm
; top infill extrusion width = 0.60mm
; first layer extrusion width = 0.65mm

M73 P0 R24
M73 Q0 S24
M201 X1000 Y1000 Z200 E5000 ; sets maximum accelerations, mm/sec^2
M203 X200 Y200 Z12 E120 ; sets maximum feedrates, mm / sec
M204 S1250 T1250 ; sets acceleration (S) and retract acceleration (R), mm/sec^2
M205 X8.00 Y8.00 Z0.40 E4.50 ; sets the jerk limits, mm/sec
M205 S0 T0 ; sets the minimum extruding and travel feed rate, mm/sec
;TYPE:Custom
M862.3 P "MK3S" ; printer model check
M862.1 P0.6 ; nozzle diameter check
M115 U3.13.0 ; tell printer latest fw version
G90 ; use absolute coordinates
M83 ; extruder relative mode
M104 S215 ; set extruder temp
M140 S60 ; set bed temp
M190 S60 ; wait for bed temp
M109 S215 ; wait for extruder temp
G28 W ; home all without mesh bed level
G80 ; mesh bed leveling

G1 Z0.2 F720
G1 Y-3 F1000 ; go outside print area
G92 E0
G1 X60 E9 F1000 ; intro line
G1 X100 E12.5 F1000 ; intro line

G92 E0
M221 S95
G21 ; set units to millimeters
G90 ; use absolute coordinates
M83 ; use relative distances for extrusion
M900 K0.04 ; Filament gcode LA 1.5
M900 K18 ; Filament gcode LA 1.0
M107
;LAYER_CHANGE
;Z:0.2
;HEIGHT:0.2
;BEFORE_LAYER_CHANGE
G92 E0.0
;0.2


G1 E-.8 F2100
G1 Z.4 F720
;AFTER_LAYER_CHANGE
;0.2
G1 X93.419 Y93.205 F10800
G1 Z.2 F720
G1 E.8 F1500
M204 S800
;TYPE:Skirt/Brim
;WIDTH:0.65
G1 F1200
G1 X94.328 Y92.329 E.06372
G1 X95.285 Y91.856 E.05389
G1 X96.5 Y91.658 E.06214
G1 X153.585 Y91.659 E2.88159
G1 X154.331 Y91.747 E.03792
M73 P0 R23
G1 X155.056 Y91.987 E.03855
G1 X155.672 Y92.329 E.03557
G1 X156.269 Y92.837 E.03957
G1 X156.721 Y93.405 E.03664
G1 X157.066 Y94.074 E.038
G1 X157.247 Y94.654 E.03067
G1 X157.341 Y95.426 E.03926
G1 X157.304 Y111.037 E.78803
G1 X156.945 Y112.199 E.06139
G1 X156.403 Y113.016 E.04949
G1 X155.651 Y113.685 E.05081
G1 X154.715 Y114.144 E.05262
G1 X153.5 Y114.342 E.06214
G1 X96.331 Y114.338 E2.88583
G1 X95.285 Y114.144 E.0537
G1 X94.328 Y113.671 E.05389
M73 Q1 S24
G1 X93.419 Y112.795 E.06372
G1 X92.88 Y111.785 E.05779
M73 P1 R23
G1 X92.659 Y110.574 E.06214
G1 X92.678 Y95.11 E.78061
G1 X92.934 Y94.074 E.05387
G1 X93.375 Y93.283 E.04572
M204 S1000
; printing object kabeljau_4.stl id:0 copy 0
;WIPE_START
G1 F8640
G1 X94.328 Y92.329 E-.31136
G1 X95.285 Y91.856 E-.24649
G1 X96.32 Y91.687 E-.24215
;WIPE_END
G1 Z.6 F720
G1 X151.942 Y109.901 F10800
G1 Z.2 F720
G1 E.8 F1500
M204 S800
;TYPE:Perimeter
;WIDTH:0.82913
G1 F1200
G1 X152.027 Y109.422 E.0318
G1 X152.072 Y108.507 E.05989
;WIDTH:0.798804
G1 X152.072 Y96.551 E.75146
;WIDTH:0.798495
G1 X152.072 Y96.171 E.02387
G1 X152.828 Y96.175 E.0475
G1 X152.828 Y96.551 E.02362
;WIDTH:0.798804
G1 X152.828 Y108.507 E.75146
;WIDTH:0.80037
G1 X152.827 Y108.6 E.00586
;WIDTH:0.82913
G1 X152.812 Y109.829 E.08035
G1 X152.442 Y109.841 E.0242
G1 X152.031 Y109.89 E.02706
M204 S1000
;WIPE_START
G1 F8640
G1 X152.027 Y109.422 E-.10807
G1 X152.072 Y108.507 E-.21153
G1 X152.072 Y106.426 E-.4804
;WIPE_END
G1 Z.6 F720
G1 X143.181 Y110.01 F10800
G1 Z.2 F720
G1 E.8 F1500
M204 S800
;WIDTH:0.649999
G1 F1200
G1 X142.514 Y109.929 E.03392
G1 X140.999 Y109.907 E.07648
G1 X137.966 Y109.911 E.1531
G1 X137.351 Y109.94 E.03108
G1 X136.819 Y110.01 E.02709
G1 X136.899 Y109.722 E.01509
G1 X136.94 Y109.388 E.01699
G1 X136.997 Y108.507 E.04456
G1 X136.998 Y96.094 E.62659
G1 X143.002 Y96.104 E.30308
G1 X143.005 Y108.569 E.62922
G1 X143.069 Y109.508 E.04751
G1 X143.161 Y109.923 E.02146
M204 S1000
;WIPE_START
G1 F8640
G1 X142.514 Y109.929 E-.1494
G1 X140.999 Y109.907 E-.34985
G1 X139.697 Y109.909 E-.30075
;WIPE_END
G1 Z.6 F720
G1 X128.181 Y110.01 F10800
G1 Z.2 F720
G1 E.8 F1500
M204 S800
G1 F1200
G1 X127.514 Y109.929 E.03392
G1 X125.999 Y109.907 E.07648
G1 X122.999 Y109.91 E.15144
G1 X122.384 Y109.936 E.03107
G1 X121.819 Y110.01 E.02876
G1 X121.936 Y109.492 E.02681
G1 X121.987 Y108.994 E.02527
G1 X121.997 Y96.093 E.65123
G1 X128.002 Y96.093 E.30313
G1 X128.005 Y108.569 E.62977
G1 X128.069 Y109.508 E.04751
G1 X128.161 Y109.923 E.02146
M204 S1000
;WIPE_START
G1 F8640
G1 X127.514 Y109.929 E-.1494
G1 X125.999 Y109.907 E-.34985
G1 X124.697 Y109.908 E-.30075
;WIPE_END
G1 Z.6 F720
G1 X113.181 Y110.01 F10800
G1 Z.2 F720
G1 E.8 F1500
M204 S800
G1 F1200
G1 X112.514 Y109.929 E.03392
G1 X110.999 Y109.907 E.07648
G1 X107.966 Y109.911 E.1531
G1 X107.351 Y109.94 E.03108
G1 X106.819 Y110.01 E.02709
G1 X106.899 Y109.722 E.01509
G1 X106.94 Y109.388 E.01699
G1 X106.997 Y108.507 E.04456
G1 X106.998 Y96.093 E.62664
G1 X113.002 Y96.093 E.30307
G1 X113.005 Y108.569 E.62977
G1 X113.069 Y109.508 E.04751
G1 X113.161 Y109.923 E.02146
M204 S1000
;WIPE_START
G1 F8640
G1 X112.514 Y109.929 E-.1494
G1 X110.999 Y109.907 E-.34985
G1 X109.697 Y109.909 E-.30075
;WIPE_END
G1 Z.6 F720
G1 X98.058 Y109.901 F10800
G1 Z.2 F720
G1 E.8 F1500
M204 S800
;WIDTH:0.829131
G1 F1200
G1 X97.188 Y109.829 E.05707
G1 X97.172 Y108.507 E.08643
;WIDTH:0.798805
G1 X97.172 Y96.551 E.75146
;WIDTH:0.798496
G1 X97.172 Y96.171 E.02387
G1 X97.928 Y96.175 E.0475
G1 X97.928 Y96.551 E.02362
;WIDTH:0.798805
G1 X97.928 Y108.507 E.75146
;WIDTH:0.800372
G1 X97.93 Y108.574 E.00422
;WIDTH:0.829131
G1 X97.973 Y109.422 E.05551
G1 X98.042 Y109.813 E.02596
M204 S1000
;WIPE_START
G1 F8640
G1 X97.188 Y109.829 E-.19723
G1 X97.172 Y108.507 E-.30528
G1 X97.172 Y107.219 E-.29749
;WIPE_END
G1 Z.6 F720
G1 X144.118 Y110.759 F10800
G1 Z.2 F720
G1 E.8 F1500
M204 S800
;TYPE:External perimeter
;WIDTH:0.602333
G1 F1200
G1 X143.827 Y110.738 E.01357
;WIDTH:0.643777
G1 X143.537 Y110.718 E.01452
;WIDTH:0.649999
G1 X143.042 Y110.601 E.02568
G1 X142.506 Y110.536 E.02725
G1 X141 Y110.514 E.07603
G1 X137.988 Y110.517 E.15204
G1 X137.427 Y110.542 E.02835
G1 X136.928 Y110.607 E.0254
G1 X136.422 Y110.724 E.02622
;WIDTH:0.631577
G1 X136.152 Y110.741 E.01324
;WIDTH:0.596233
G1 X135.882 Y110.759 E.01245
;WIDTH:0.560889
G1 X129.118 Y110.759 E.29132
;WIDTH:0.602333
G1 X128.827 Y110.738 E.01357
;WIDTH:0.643777
M73 Q2 S24
G1 X128.537 Y110.718 E.01452
;WIDTH:0.649999
G1 X128.042 Y110.601 E.02568
G1 X127.506 Y110.536 E.02725
M73 P2 R23
G1 X126 Y110.514 E.07603
G1 X122.999 Y110.517 E.15149
G1 X122.46 Y110.538 E.02723
G1 X121.928 Y110.607 E.02708
G1 X121.422 Y110.724 E.02622
;WIDTH:0.631577
G1 X121.152 Y110.741 E.01324
;WIDTH:0.596233
G1 X120.882 Y110.759 E.01245
;WIDTH:0.560889
G1 X114.118 Y110.759 E.29132
;WIDTH:0.602333
G1 X113.827 Y110.738 E.01357
;WIDTH:0.643777
G1 X113.537 Y110.718 E.01452
;WIDTH:0.649999
G1 X113.042 Y110.601 E.02568
G1 X112.506 Y110.536 E.02725
G1 X111 Y110.514 E.07603
G1 X107.988 Y110.517 E.15204
G1 X107.427 Y110.542 E.02835
G1 X106.928 Y110.607 E.0254
G1 X106.422 Y110.724 E.02622
;WIDTH:0.631577
G1 X106.152 Y110.741 E.01324
;WIDTH:0.596233
G1 X105.882 Y110.759 E.01245
;WIDTH:0.560889
G1 X99.118 Y110.759 E.29132
;WIDTH:0.602333
G1 X98.827 Y110.738 E.01357
;WIDTH:0.643777
G1 X98.537 Y110.718 E.01452
;WIDTH:0.649999
G1 X98.042 Y110.601 E.02568
G1 X97.511 Y110.536 E.027
G1 X96.525 Y110.506 E.0498
G1 X96.491 Y110.478 E.00222
G1 X96.491 Y95.534 E.75436
G1 X96.536 Y95.486 E.00332
G1 X98.578 Y95.497 E.10308
G1 X98.609 Y95.522 E.00201
G1 X98.61 Y108.507 E.65547
G1 X98.687 Y109.561 E.05335
G1 X98.871 Y110.154 E.03134
;WIDTH:0.643777
G1 X98.995 Y110.198 E.00657
;WIDTH:0.602333
G1 X99.118 Y110.241 E.00606
;WIDTH:0.560889
G1 X105.882 Y110.241 E.29132
;WIDTH:0.596233
G1 X106.003 Y110.196 E.00594
;WIDTH:0.631577
G1 X106.124 Y110.151 E.00632
;WIDTH:0.649999
G1 X106.226 Y109.876 E.01481
G1 X106.334 Y109.346 E.0273
G1 X106.39 Y108.507 E.04245
G1 X106.391 Y95.535 E.65481
G1 X106.437 Y95.486 E.00339
G1 X113.539 Y95.486 E.3585
G1 X113.609 Y95.514 E.00381
G1 X113.61 Y108.528 E.65693
G1 X113.687 Y109.561 E.05229
G1 X113.871 Y110.154 E.03134
;WIDTH:0.643777
G1 X113.995 Y110.198 E.00657
;WIDTH:0.602333
G1 X114.118 Y110.241 E.00606
;WIDTH:0.560889
G1 X120.882 Y110.241 E.29132
;WIDTH:0.596233
G1 X121.003 Y110.196 E.00594
;WIDTH:0.631577
G1 X121.124 Y110.151 E.00632
;WIDTH:0.649999
G1 X121.175 Y110.063 E.00513
G1 X121.322 Y109.515 E.02864
G1 X121.38 Y108.993 E.02651
G1 X121.391 Y95.531 E.67955
G1 X121.431 Y95.486 E.00304
M73 Q2 S23
G1 X128.559 Y95.486 E.35981
G1 X128.609 Y95.522 E.00311
G1 X128.61 Y108.528 E.65653
G1 X128.687 Y109.561 E.05229
G1 X128.871 Y110.154 E.03134
;WIDTH:0.643777
G1 X128.995 Y110.198 E.00657
;WIDTH:0.602333
G1 X129.118 Y110.241 E.00606
;WIDTH:0.560889
G1 X135.882 Y110.241 E.29132
;WIDTH:0.596233
G1 X136.003 Y110.196 E.00594
;WIDTH:0.631577
G1 X136.124 Y110.151 E.00632
;WIDTH:0.649999
G1 X136.226 Y109.876 E.01481
G1 X136.334 Y109.346 E.0273
G1 X136.39 Y108.507 E.04245
G1 X136.391 Y95.53 E.65506
G1 X136.431 Y95.486 E.003
G1 X143.578 Y95.498 E.36077
G1 X143.609 Y95.522 E.00198
G1 X143.61 Y108.528 E.65653
G1 X143.687 Y109.561 E.05229
G1 X143.871 Y110.154 E.03134
;WIDTH:0.643777
G1 X143.995 Y110.198 E.00657
;WIDTH:0.602333
G1 X144.118 Y110.241 E.00606
;WIDTH:0.560889
G1 X150.882 Y110.241 E.29132
;WIDTH:0.596233
G1 X151.003 Y110.196 E.00594
;WIDTH:0.631577
G1 X151.124 Y110.151 E.00632
;WIDTH:0.649999
G1 X151.226 Y109.876 E.01481
G1 X151.332 Y109.374 E.0259
G1 X151.39 Y108.507 E.04386
G1 X151.391 Y95.534 E.65486
G1 X151.436 Y95.486 E.00332
G1 X153.478 Y95.497 E.10308
G1 X153.509 Y95.529 E.00225
G1 X153.509 Y110.47 E.7542
G1 X153.475 Y110.506 E.0025
G1 X152.427 Y110.542 E.05293
G1 X151.928 Y110.607 E.0254
G1 X151.422 Y110.724 E.02622
;WIDTH:0.631577
G1 X151.152 Y110.741 E.01324
;WIDTH:0.596233
G1 X150.882 Y110.759 E.01245
;WIDTH:0.560889
G1 X144.208 Y110.759 E.28744
M204 S1000
;WIPE_START
G1 F8640
G1 X143.827 Y110.738 E-.08811
G1 X143.537 Y110.718 E-.06712
G1 X143.042 Y110.601 E-.11745
G1 X142.506 Y110.536 E-.12467
G1 X141 Y110.514 E-.34778
G1 X140.762 Y110.514 E-.05487
;WIPE_END
G1 Z.6 F720
G1 X141.515 Y96.344 F10800
G1 Z.2 F720
G1 E.8 F1500
M204 S800
;TYPE:Solid infill
;WIDTH:0.656908
G1 F1200
G1 X142.486 Y97.315 E.07011
G1 X142.486 Y98.183 E.04431
G1 X140.919 Y96.616 E.11314
G1 X140.049 Y96.615 E.04442
G1 X142.486 Y99.052 E.17595
G1 X142.486 Y99.92 E.04431
G1 X139.18 Y96.613 E.23873
G1 X138.31 Y96.612 E.04442
G1 X142.486 Y100.788 E.30151
G1 X142.486 Y101.657 E.04437
G1 X137.514 Y96.684 E.35902
G1 X137.514 Y97.553 E.04437
G1 X142.486 Y102.525 E.35898
G1 X142.486 Y103.393 E.04431
M73 P3 R23
M73 Q3 S23
G1 X137.514 Y98.421 E.35898
G1 X137.514 Y99.289 E.04431
G1 X142.486 Y104.262 E.35902
G1 X142.487 Y105.13 E.04431
G1 X137.514 Y100.157 E.35905
G1 X137.514 Y101.026 E.04437
G1 X142.487 Y105.998 E.35902
G1 X142.487 Y106.867 E.04437
G1 X137.514 Y101.894 E.35905
G1 X137.514 Y102.762 E.04431
G1 X142.487 Y107.735 E.35905
G1 X142.494 Y108.611 E.04472
G1 X137.514 Y103.63 E.35959
G1 X137.514 Y104.499 E.04437
G1 X142.426 Y109.411 E.35465
G1 X141.546 Y109.399 E.04493
G1 X137.513 Y105.367 E.29115
G1 X137.513 Y106.235 E.04431
G1 X140.67 Y109.392 E.22794
G1 X139.802 Y109.392 E.04431
G1 X137.513 Y107.104 E.16523
G1 X137.513 Y107.972 E.04431
G1 X138.935 Y109.393 E.10263
G1 X138.067 Y109.394 E.04431
G1 X137.236 Y108.563 E.06
M204 S1000
;WIPE_START
G1 F8640
G1 X138.067 Y109.394 E-.27136
G1 X138.935 Y109.393 E-.20042
G1 X137.93 Y108.388 E-.32822
;WIPE_END
G1 Z.6 F720
G1 X126.517 Y96.335 F10800
G1 Z.2 F720
G1 E.8 F1500
M204 S800
;WIDTH:0.657237
G1 F1200
G1 X127.486 Y97.305 E.07004
G1 X127.486 Y98.174 E.04439
G1 X125.921 Y96.609 E.11305
G1 X125.052 Y96.609 E.04439
G1 X127.486 Y99.043 E.17583
G1 X127.486 Y99.911 E.04434
G1 X124.184 Y96.609 E.23853
G1 X123.315 Y96.609 E.04439
G1 X127.486 Y100.78 E.30131
G1 X127.486 Y101.649 E.04439
G1 X122.513 Y96.676 E.35924
G1 X122.512 Y97.544 E.04434
G1 X127.486 Y102.518 E.35932
G1 X127.486 Y103.387 E.04439
G1 X122.512 Y98.412 E.35935
G1 X122.511 Y99.28 E.04434
G1 X127.486 Y104.255 E.35939
G1 X127.486 Y105.124 E.04439
G1 X122.51 Y100.148 E.35946
G1 X122.51 Y101.016 E.04434
G1 X127.487 Y105.993 E.35953
G1 X127.487 Y106.862 E.04439
G1 X122.509 Y101.884 E.35961
G1 X122.508 Y102.752 E.04434
G1 X127.487 Y107.731 E.35968
G1 X127.493 Y108.606 E.0447
G1 X122.507 Y103.62 E.36018
G1 X122.507 Y104.488 E.04434
G1 X127.43 Y109.411 E.35563
G1 X126.549 Y109.399 E.04501
G1 X122.506 Y105.357 E.29203
G1 X122.505 Y106.225 E.04434
G1 X125.672 Y109.392 E.22878
G1 X124.805 Y109.392 E.04429
G1 X122.505 Y107.093 E.16611
G1 X122.504 Y107.961 E.04434
G1 X123.937 Y109.393 E.10348
G1 X123.069 Y109.394 E.04434
G1 X122.23 Y108.556 E.06057
M204 S1000
;WIPE_START
G1 F8640
G1 X123.069 Y109.394 E-.27381
G1 X123.937 Y109.393 E-.20042
G1 X122.939 Y108.396 E-.32577
;WIPE_END
G1 Z.6 F720
G1 X111.517 Y96.335 F10800
G1 Z.2 F720
G1 E.8 F1500
M204 S800
;WIDTH:0.657255
G1 F1200
G1 X112.486 Y97.305 E.07004
G1 X112.486 Y98.174 E.04439
G1 X110.921 Y96.609 E.11306
G1 X110.052 Y96.609 E.04439
G1 X112.486 Y99.043 E.17583
G1 X112.486 Y99.911 E.04434
G1 X109.183 Y96.609 E.23858
G1 X108.315 Y96.609 E.04434
G1 X112.486 Y100.78 E.30132
G1 X112.486 Y101.649 E.04439
G1 X107.514 Y96.677 E.35918
G1 X107.514 Y97.545 E.04434
G1 X112.486 Y102.518 E.35922
G1 X112.486 Y103.387 E.04439
G1 X107.514 Y98.414 E.35922
G1 X107.514 Y99.283 E.04439
G1 X112.486 Y104.256 E.35922
M73 P4 R23
G1 X112.487 Y105.125 E.04439
M73 Q4 S23
G1 X107.514 Y100.152 E.35925
G1 X107.514 Y101.021 E.04439
G1 X112.487 Y105.993 E.35922
G1 X112.487 Y106.862 E.04439
G1 X107.514 Y101.889 E.35925
G1 X107.514 Y102.758 E.04439
G1 X112.487 Y107.731 E.35925
G1 X112.493 Y108.607 E.04475
G1 X107.514 Y103.627 E.35972
G1 X107.514 Y104.496 E.04439
G1 X112.429 Y109.411 E.35506
G1 X111.548 Y109.399 E.04501
G1 X107.513 Y105.364 E.29149
G1 X107.513 Y106.233 E.04439
G1 X110.672 Y109.392 E.22821
G1 X109.804 Y109.392 E.04434
G1 X107.513 Y107.102 E.16547
G1 X107.513 Y107.971 E.04439
G1 X108.936 Y109.393 E.10276
G1 X108.068 Y109.394 E.04434
G1 X107.236 Y108.562 E.0601
M204 S1000
; stop printing object kabeljau_4.stl id:0 copy 0
M106 S84.15
;LAYER_CHANGE
;Z:0.5
;HEIGHT:0.3
;BEFORE_LAYER_CHANGE
G92 E0.0
;0.5


;WIPE_START
G1 F8640
G1 X108.068 Y109.394 E-.27169
G1 X108.936 Y109.393 E-.20042
G1 X107.932 Y108.389 E-.32789
;WIPE_END
G1 Z.6 F720
;AFTER_LAYER_CHANGE
;0.5
M104 S210 ; set temperature
G1 X107.931 Y114.339 F10800
G1 Z.5 F720
G1 E.8 F1500
;TYPE:Skirt/Brim
;WIDTH:0.65
G1 F3000
G1 X96.331 Y114.338 E.84728
G1 X95.285 Y114.144 E.0777
G1 X94.328 Y113.671 E.07797
G1 X93.419 Y112.795 E.09221
G1 X92.88 Y111.785 E.08362
G1 X92.659 Y110.574 E.08991
G1 X92.678 Y95.11 E1.12952
G1 X92.934 Y94.074 E.07795
G1 X93.419 Y93.205 E.07269
G1 X94.328 Y92.329 E.09221
G1 X95.285 Y91.856 E.07797
G1 X96.5 Y91.658 E.08992
G1 X153.585 Y91.659 E4.16958
G1 X154.331 Y91.747 E.05487
G1 X155.056 Y91.987 E.05578
G1 X155.672 Y92.329 E.05146
G1 X156.269 Y92.837 E.05726
G1 X156.721 Y93.405 E.05302
G1 X157.066 Y94.074 E.05498
G1 X157.247 Y94.654 E.04438
G1 X157.341 Y95.426 E.0568
G1 X157.304 Y111.037 E1.14026
G1 X156.945 Y112.199 E.08883
G1 X156.403 Y113.016 E.07161
G1 X155.651 Y113.685 E.07352
G1 X154.715 Y114.144 E.07614
G1 X153.5 Y114.342 E.08992
G1 X108.021 Y114.339 E3.32186
; printing object kabeljau_4.stl id:0 copy 0
;WIPE_START
G1 F8640
G1 X104.556 Y114.339 E-.8
;WIPE_END
G1 Z.9 F720
G1 X136.349 Y104.528 F10800
G1 Z.5 F720
G1 E.8 F1500
M204 S800
;TYPE:Perimeter
;WIDTH:0.649999
G1 F2700
G1 X136.593 Y103.726 E.06123
G1 X136.656 Y102.914 E.05949
G1 X136.552 Y102.082 E.06124
G1 X136.349 Y101.472 E.04696
G1 X136.349 Y95.593 E.42941
G1 X136.379 Y95.479 E.00861
G1 X136.454 Y95.448 E.00593
G1 X143.507 Y95.448 E.51516
G1 X143.62 Y95.466 E.00836
G1 X143.651 Y95.531 E.00526
G1 X143.651 Y101.472 E.43394
G1 X143.407 Y102.274 E.06123
G1 X143.344 Y103.086 E.05949
G1 X143.448 Y103.918 E.06124
G1 X143.651 Y104.528 E.04696
G1 X143.651 Y109.57 E.36828
G1 X143.826 Y110.097 E.04056
;WIDTH:0.684613
G1 F2265.554

G1 X144.061 Y110.231 E.02093

;WIDTH:0.719226
G1 F2170.961

G1 X144.295 Y110.366 E.02206
G1 F2700

;WIDTH:0.753839
G1 X144.529 Y110.5 E.02319
G1 X144.219 Y110.517 E.0267
;WIDTH:0.719226
G1 X143.909 Y110.535 E.02536
;WIDTH:0.684613
